lib/flags/m/630.svg

<svg xmlns="http://www.w3.org/2000/svg" fill="none" viewBox="0 0 20 15"><mask id="630_svg__a" width="20" height="15" x="0" y="0" mask-type="alpha" maskUnits="userSpaceOnUse"><path fill="#fff" d="M0 0H20V15H0z"/></mask><g mask="url(#630_svg__a)"><path fill="#EF0000" fill-rule="evenodd" d="M0 0V15H20V0H0Z" clip-rule="evenodd"/><mask id="630_svg__b" width="20" height="15" x="0" y="0" mask-type="alpha" maskUnits="userSpaceOnUse"><path fill="#fff" fill-rule="evenodd" d="M0 0V15H20V0H0Z" clip-rule="evenodd"/></mask><g mask="url(#630_svg__b)"><path fill="#EF0000" stroke="#F7FCFF" stroke-width="2.5" d="M0 5H-1.25V6.25V8.75V10H0H20H21.25V8.75V6.25V5H20H0Z"/></g><path fill="#3D58DB" fill-rule="evenodd" d="M0 0V15L11.25 7.5L0 0Z" clip-rule="evenodd"/><mask id="630_svg__c" width="12" height="15" x="0" y="0" mask-type="alpha" maskUnits="userSpaceOnUse"><path fill="#fff" fill-rule="evenodd" d="M0 0V15L11.25 7.5L0 0Z" clip-rule="evenodd"/></mask><g mask="url(#630_svg__c)"><path fill="#F7FCFF" fill-rule="evenodd" d="M4.17984 8.8855L1.88488 10.0968L3.00217 7.66304L1.57843 6.36296L3.33623 6.29808L4.17984 4.09766L4.82362 6.29808H6.57843L5.40881 7.66304L6.33915 10.0968L4.17984 8.8855Z" clip-rule="evenodd"/></g></g></svg>

<svg xmlns="http://www.w3.org/2000/svg" fill="none" viewBox="0 0 20 15"><mask id="630_svg__a" width="20" height="15" x="0" y="0" maskUnits="userSpaceOnUse"><path fill="#fff" d="M0 0h20v15H0z"/></mask><g mask="url(#630_svg__a)"><path fill="#EF0000" fill-rule="evenodd" d="M0 0v15h20V0H0z" clip-rule="evenodd"/><mask id="630_svg__b" width="20" height="15" x="0" y="0" maskUnits="userSpaceOnUse"><path fill="#fff" fill-rule="evenodd" d="M0 0v15h20V0H0z" clip-rule="evenodd"/></mask><g mask="url(#630_svg__b)"><path fill="#EF0000" stroke="#F7FCFF" stroke-width="2.5" d="M0 5h-1.25v5h22.5V5H0z"/></g><path fill="#3D58DB" fill-rule="evenodd" d="M0 0v15l11.25-7.5L0 0z" clip-rule="evenodd"/><mask id="630_svg__c" width="12" height="15" x="0" y="0" maskUnits="userSpaceOnUse"><path fill="#fff" fill-rule="evenodd" d="M0 0v15l11.25-7.5L0 0z" clip-rule="evenodd"/></mask><g mask="url(#630_svg__c)"><path fill="#F7FCFF" fill-rule="evenodd" d="M4.18 8.886l-2.295 1.21 1.117-2.433-1.424-1.3 1.758-.065.844-2.2.644 2.2h1.754l-1.17 1.365.931 2.434-2.16-1.211z" clip-rule="evenodd"/></g></g></svg>
